img/arrow-44.svg

<svg fill="none" height="16" viewBox="0 0 14 16" width="14" xmlns="http://www.w3.org/2000/svg"><path d="m6.40134 15.3716c.33063.3306.86669.3306 1.19732 0l5.38794-5.3879c.3306-.33063.3306-.86668 0-1.19731-.3307-.33063-.8667-.33063-1.1974 0l-4.7892 4.78921-4.78925-4.78921c-.33063-.33063-.86668-.33063-1.19731 0-.330628.33063-.330628.86668 0 1.19731zm1.44529-14.14469c0-.467578-.37905-.846626-.84663-.846626s-.84663.379048-.84663.846626zm0 13.54599v-13.54599h-1.69326v13.54599z" fill="#fff"/></svg>

<svg width="14" height="16" viewBox="0 0 14 16" fill="none" xmlns="http://www.w3.org/2000/svg">
<path d="M6.40134 15.3716C6.73197 15.7022 7.26803 15.7022 7.59866 15.3716L12.9866 9.9837C13.3172 9.65307 13.3172 9.11702 12.9866 8.78639C12.6559 8.45576 12.1199 8.45576 11.7892 8.78639L7 13.5756L2.21075 8.78639C1.88012 8.45576 1.34407 8.45576 1.01344 8.78639C0.682812 9.11702 0.682812 9.65307 1.01344 9.9837L6.40134 15.3716ZM7.84663 1.22691C7.84663 0.759332 7.46758 0.380284 7 0.380284C6.53242 0.380284 6.15337 0.759332 6.15337 1.22691H7.84663ZM7.84663 14.7729L7.84663 1.22691H6.15337L6.15337 14.7729H7.84663Z" fill="white"/>
</svg>
